front/src/assets/images/sad.svg

<svg xmlns="http://www.w3.org/2000/svg" width="89" height="89" fill="none"><path stroke="#FC5050" stroke-linecap="round" stroke-linejoin="round" stroke-width="5" d="M44.5 86.5c23.196 0 42-18.804 42-42s-18.804-42-42-42-42 18.804-42 42 18.804 42 42 42Z"/><path stroke="#FC5050" stroke-linecap="round" stroke-linejoin="round" stroke-width="5" d="M61.3 61.3s-6.3-8.4-16.8-8.4-16.8 8.4-16.8 8.4"/><path stroke="#FC5050" stroke-linecap="round" stroke-linejoin="round" stroke-width="8" d="M31.9 31.9h.042M57.1 31.9h.042"/></svg>

<svg width="89" height="89" viewBox="0 0 89 89" fill="none" xmlns="http://www.w3.org/2000/svg">
<path d="M44.5 86.5C67.696 86.5 86.5 67.696 86.5 44.5C86.5 21.304 67.696 2.5 44.5 2.5C21.304 2.5 2.5 21.304 2.5 44.5C2.5 67.696 21.304 86.5 44.5 86.5Z" stroke="#FC5050" stroke-width="5" stroke-linecap="round" stroke-linejoin="round"/>
<path d="M61.3 61.3C61.3 61.3 55 52.9 44.5 52.9C34 52.9 27.7 61.3 27.7 61.3" stroke="#FC5050" stroke-width="5" stroke-linecap="round" stroke-linejoin="round"/>
<path d="M31.9 31.9H31.942" stroke="#FC5050" stroke-width="8" stroke-linecap="round" stroke-linejoin="round"/>
<path d="M57.1 31.9H57.142" stroke="#FC5050" stroke-width="8" stroke-linecap="round" stroke-linejoin="round"/>
</svg>
